X:190
T:Today Thy Mercy Calls Me
%%stretchlast false
M:4/4
L:1/4
K:G clef=C1
"^I"[G,,G,B,D] "^I¹"[B,,G,DG] "^V"[D,A,DF] "^vi"[E,G,B,G] | "^V"[D,F,DA] "^I"[G,,G,DB]2 [G,,B,DG] | "^I¹"[B,,G,DG] "^IV"[C,G,CE] "^ii7"[A,,G,Ec] "^I²"[D,G,DB] | "^V"[D,F,DA]/ "^V7"[D,F,CA]/ "^I"[G,,G,B,G]3 | [G,,G,B,D] "^I¹"[B,,G,DG] "^V"[D,A,DF] "^vi"[E,G,B,G] | "^V"[D,F,DA] "^I"[G,,G,DB]2 [G,,B,DG] | "^I¹"[B,,G,DG] "^IV"[C,G,CE] "^ii7"[A,,G,Ec] "^I²"[D,G,DB] | "^V"[D,F,DA]/ "^V7"[D,F,CA]/ "^I"[G,,G,B,G]3 | [G,,G,DB] "^II"[A,,E,^CA] "^iii"[B,,D,DF] "^vi¹"[G,,E,B,G] | "^V/V"[A,,A,^CE] "^V"[D,A,DF]2 [D,F,D] | [D,F,A,D] "^V/V¹"[^C,E,A,E] "^V7³"[C,A,DF] "^I¹"[B,,G,DG] | "^V"[D,F,DA] "^I"[G,,G,DB]3 | [G,,G,B,D] "^vi"[E,G,B,G] "^iii"[B,,B,DF] "^IV"[C,G,CE] | "^I"[G,B,D] "^V¹"[F,A,DA] "^II7²"[E,G,^CA] "^V"[D,F,DA] | "^I"[G,,G,DB] "^IV"[C,G,Ec] "^ii¹"[C,A,EA] "^I²"[D,B,DG] | "^V"[D,A,DF] "^I"[G,,B,DG]3 |]
